X:1
T:Lummi miei cari
T:Lummi miei cari
T:Giovanni Ghizzolo
C:Giovanni Ghizzolo
%%score [ 1 2 ] { 3 | 4 }
L:1/8
Q:1/4=120
M:4/4
K:F
V:1 treble nm="Soprano" snm="S"
V:2 bass nm="Bass" snm="B"
V:3 treble nm="BC" snm="BC"
V:4 bass 
V:1
"^Source: Madrigali et Arie---Libro secondo---Venetia---A.Raverij.1609.""^Editor: André Vierendeels (16/11/08)\nContinuo: André Vierendeels" d4 cdBG"^MADRIGALE" | %1
w: Lum- mi miei ca- ri,|
 A2 AA Bcdf | _edcB c4 | cABc dBcA | BGAF G4 | G2 AB c4- | c2 BA A4 |[M:2/4] G4 :: d4 | %9
w: lum- mi che lam- pe- gia- te'un|si ve- lo- ci sguar-|do ch'a pe- na mi- ra'e fug- g'e-|poi tor- na si tar-|do ch'el mio cor-|* se ne strug-|ge.|Vol-|
[M:4/4] cccB c4 | c4 z ccc | c3 =B G4 | G3 G G2 B2 | A3 G G4 | G2 D2 E2 F2 | E3 E D4 | D2 dB d4- | %17
w: ge- te'a me vol- ge-|te que'i fug- gi-|ti- vi ra-|i ch'og- get- to|non ve- dre-|te in al- tra|par- te ma-|i co- si gius-|
 d2 cB c4 | c3 c BAGG | F2 d4 cB | A8 | G8 :| %22
w: * to- de- si-|o che tan- to vo- stro|fia quan- to son|i-|o.|
V:2
 B,4 F,F,G,_E, | D,2 D,D, G,F,B,B,, | C,D,_E,G, F,4 | F,4 z D,E,F, | %4
w: Lum- mi miei ca- ri,|lum- mi che lam- pe- gia- te'un|si ve- lo- ci sguar-|do ch'a pe- na|
 G,"^Note original keys: Ut 1st, Fa 4rth"E,D,B,, _E,C,D,B,, | C,4 C,2 D,E, | F,2 C,C, D,4 | %7
w: mi- ra'e fug- g'e poi tor- na si|tar- do ch'el mio|cor se me strug-|
[M:2/4] G,,4 :: B,,4 |[M:4/4] _E,E,E,D, F,4 | F,F,F,F, F,4 | F,2 G,2 C,4 | C,3 C, C,2 G,,2 | %13
w: ge.|Vol-|ge- te'a me vol- ge|te que'i fug- gi- ti-|* vi ra-|i ch'iog- get- to|
 D,3 D, G,,4 | G,,2 B,,2 A,,2 G,,2 | A,,3 A,, D,4 | D,4 z2 B,G, | B,2 A,G, F,4- | %18
w: non ve- dre-|te in al- tra|par- te ma-|i co- si|gius- to de- si-|
 F,2 F,_E, D,C,C,B,, | B,,2 G,,2 A,,2 B,,2 | C,D,_E,C, D,4 | G,,8 :| %22
w: * o che tan- to vo- stro|fia quan- to son|i- * * * *|o.|
V:3
 [DFB]4 [FA]2 [_EB]2 | [DA]4 [DB]4 | [Gc]4 [FAc]4 | [FAc]8 | [DFB]4 [_EGB]4 | [EGc]8 | %6
 [FAc]2 [EG]2 G2 ^F2 |[M:2/4] [=B,DG]4 :: [FA]4 |[M:4/4] [Gc]4 [F-Ac-]4 | [FAc]8 | %11
 [FAc]2 [Gd]2 [EGc]4 | [EGc]6 [DB]2 | [D^FA]4 [D-GB-]4 | [DGB]4 [CE]2 D2 | [DA]2 ^C2 [D-^FA-]4 | %16
 [D^FA]4 z2 [DG]2 | [DB]2 F2 [FAc]4 | [FAc]8 | [DF]2 [DGB]2 [DF]4 | [C_EG]2 [Gc]2 [^FA]2 GA | %21
 [DG=B]8 :| %22
V:4
 B,4 F,2 G,_E, | D,2 D,2 G,F, B,,2 | C,D,_E,G, F,4 | F,4 z D,E,F, | A,E,D,B,, _E,C,D,B,, | %5
 C,4 C,2 D,E, | F,2 C,2 D,4 |[M:2/4] G,,4 :: D,4 |[M:4/4] _E,2 E,D, F,4 | F,4 F,4 | F,2 G,2 C,4 | %12
 C,3 C, C,2 G,,2 | D,4 G,,4 | G,,2 B,,2 A,,2 G,,2 | A,,4 D,4 | D,4 z2 B,G, | B,2 A,G, F,4- | %18
 F,2 F,_E, D,C,C,"^note: orginal keys: Ut 1st, Fa 4rth"B,, | B,,2 G,,2 A,,2 B,,2 | C,D,_E,C, D,4 | %21
 G,,8 :| %22

